X:1
T:Freichuzt's Quadrille, Der TS.207
T:Freichuzt's Quadrille, Der TS.207
T:Freischutz Quadrille,Der,aka TS.207 Huntsman's Chorus,aka TS.207
T:Carl Maria von Weber 1821
C:Carl Maria von Weber 1821
L:1/8
Q:1/4=100
M:2/4
K:D
V:1 treble 
V:1
 A,"^$" | D2 D/E/F/G/ | A2 FF | EAEA | F/G/F/E/ DA, | D2 D/E/F/G/ | A2 FF | EAEA | DF/A/ d || %9
 A/A/ | AF/F/ Fd/d/ | dA/A/ Af/f/ | f2 e/d/c/B/ | A2 FA/A/ | AF/F/ Fd/d/ | dA/A/ Ad/e/ | %16
 ff e/d/e/f/ | df d"^$" || A | d2 d/e/f/g/ | a2 ff | eaea | f/g/e/f/ dA | d2 d/e/f/g/ | a2 ff | %25
 eac'b | aA/A/ Ae | ff/f/ fe | d/e/c/d/ BB | gg/g/ gf | e/f/d/e/ cA | d2 d/e/f/g/ | a2 ff | %33
 e{^g}ae{g}a | d2 [dd']2 | d2 Af | d2 Af |{a} ge{a}ge |{a} ge{a}ge | d2 Af | d2 Af |{a} gege | %42
 d/A/^G/A/ | ^G,/A,/B,/C/!D.C.! |] %44

